; generated by PrusaSlicer 2.3.0+win64 on 2021-02-20 at 13:29:23 UTC

; 

; external perimeters extrusion width = 0.45mm
; perimeters extrusion width = 0.45mm
; infill extrusion width = 0.45mm
; solid infill extrusion width = 0.45mm
; top infill extrusion width = 0.40mm
; first layer extrusion width = 0.42mm

M201 X9000 Y9000 Z500 E10000 ; sets maximum accelerations, mm/sec^2
M203 X500 Y500 Z12 E120 ; sets maximum feedrates, mm/sec
M204 P1500 R1500 T1500 ; sets acceleration (P, T) and retract acceleration (R), mm/sec^2
M205 X10.00 Y10.00 Z0.20 E2.50 ; sets the jerk limits, mm/sec
M205 S0 T0 ; sets the minimum extruding and travel feed rate, mm/sec
M107
M190 S60 ; set bed temperature and wait for it to be reached
;TYPE:Custom
;G28 ; home all axes
;G1 Z5 F5000 ; lift nozzle
G28 ; home all axes
M109 S210 ; set the extruder temp and wait
G1 Z0.2 F1200 ; raise nozzle
G92 E0 ; reset extrusion distance
G1 X100 Y0 E12 F600 ; wipe
G92 E0 ; reset extrusion distance
G21 ; set units to millimeters
G90 ; use absolute coordinates
M82 ; use absolute distances for extrusion
G92 E0
; Filament gcode
;LAYER_CHANGE
;Z:0.175
;HEIGHT:0.175
G1 E-4.50000 F2400.000
G92 E0
G1 Z0.175 F6600.000
G1 X50.329 Y50.040
G1 E4.50000 F2400.000
;TYPE:Skirt
;WIDTH:0.42
G1 F900.000
G1 X51.484 Y49.039 E4.54253
G1 X52.361 Y48.409 E4.57257
G1 X53.676 Y47.643 E4.61492
G1 X54.730 Y47.158 E4.64722
G1 X56.090 Y46.680 E4.68732
G1 X57.217 Y46.401 E4.71961
G1 X58.722 Y46.176 E4.76197
G1 X60.237 Y46.121 E4.80415
G1 X61.421 Y46.191 E4.83714
G1 X62.924 Y46.429 E4.87950
G1 X63.975 Y46.700 E4.90971
G1 X65.408 Y47.214 E4.95206
G1 X66.775 Y47.885 E4.99442
G1 X67.702 Y48.450 E5.02463
G1 X68.925 Y49.367 E5.06716
G1 X69.794 Y50.164 E5.09998
G1 X70.818 Y51.299 E5.14251
G1 X71.704 Y52.537 E5.18486
G1 X72.287 Y53.540 E5.21716
G1 X72.900 Y54.872 E5.25795
G1 X73.279 Y55.956 E5.28990
G1 X73.647 Y57.452 E5.33277
G1 X73.844 Y58.987 E5.37583
G1 X73.881 Y60.140 E5.40795
G1 X73.791 Y61.585 E5.44822
G1 X73.608 Y62.737 E5.48069
G1 X73.228 Y64.211 E5.52304
G1 X72.676 Y65.657 E5.56609
G1 X72.160 Y66.696 E5.59839
G1 X71.351 Y67.993 E5.64092
G1 X70.694 Y68.850 E5.67096
G1 X69.653 Y69.977 E5.71366
G1 X68.511 Y70.965 E5.75567
G1 X67.629 Y71.598 E5.78588
G1 X66.313 Y72.363 E5.82824
G1 X65.235 Y72.856 E5.86122
G1 X63.796 Y73.353 E5.90358
G1 X62.293 Y73.691 E5.94646
G1 X61.141 Y73.835 E5.97875
G1 X59.632 Y73.877 E6.02076
G1 X58.530 Y73.803 E6.05149
G1 X57.009 Y73.556 E6.09437
G1 X55.537 Y73.144 E6.13690
G1 X54.460 Y72.728 E6.16902
G1 X53.165 Y72.082 E6.20930
G1 X52.175 Y71.465 E6.24176
G1 X50.965 Y70.540 E6.28412
G1 X49.862 Y69.482 E6.32665
G1 X49.098 Y68.593 E6.35929
G1 X48.222 Y67.348 E6.40165
G1 X47.685 Y66.404 E6.43186
G1 X47.058 Y65.024 E6.47404
G1 X46.586 Y63.570 E6.51657
G1 X46.348 Y62.517 E6.54661
G1 X46.155 Y61.007 E6.58897
G1 X46.119 Y59.860 E6.62091
G1 X46.209 Y58.415 E6.66119
G1 X46.392 Y57.263 E6.69365
G1 X46.772 Y55.789 E6.73601
G1 X47.321 Y54.349 E6.77889
G1 X47.840 Y53.304 E6.81135
G1 X48.646 Y52.012 E6.85371
G1 X49.302 Y51.155 E6.88375
G1 X50.289 Y50.084 E6.92426
G1 E2.87426 F2400.000
;WIPE_START
G1 F5280.000
G1 X51.034 Y49.432 E2.44676
;WIPE_END
G1 E2.42426 F2400.000
G92 E0
G1 X55.597 Y55.460 F6600.000
G1 E4.50000 F2400.000
;TYPE:Perimeter
G1 F270.000
G1 X56.189 Y54.953 E4.52167
G1 X56.507 Y54.728 E4.53251
G1 X57.181 Y54.338 E4.55417
G1 X57.535 Y54.176 E4.56501
G1 X58.269 Y53.917 E4.58668
G1 X58.647 Y53.822 E4.59752
G1 X59.416 Y53.702 E4.61919
G1 X59.805 Y53.678 E4.63002
G1 X60.195 Y53.678 E4.64086
G1 X60.970 Y53.750 E4.66253
G1 X61.731 Y53.917 E4.68420
G1 X62.102 Y54.035 E4.69504
G1 X62.819 Y54.338 E4.71670
G1 X63.162 Y54.523 E4.72754
G1 X63.811 Y54.953 E4.74921
G1 X64.403 Y55.460 E4.77088
G1 X64.927 Y56.035 E4.79255
G1 X65.377 Y56.671 E4.81421
G1 X65.572 Y57.008 E4.82505
G1 X65.897 Y57.715 E4.84672
G1 X66.134 Y58.457 E4.86839
G1 X66.217 Y58.838 E4.87922
G1 X66.313 Y59.611 E4.90089
G1 X66.325 Y60.000 E4.91173
G1 X66.277 Y60.777 E4.93340
G1 X66.134 Y61.543 E4.95507
G1 X66.027 Y61.917 E4.96590
G1 X65.746 Y62.643 E4.98757
G1 X65.377 Y63.329 E5.00924
G1 X65.162 Y63.654 E5.02008
G1 X64.927 Y63.965 E5.03092
G1 X64.403 Y64.540 E5.05258
G1 X63.811 Y65.047 E5.07425
G1 X63.493 Y65.272 E5.08509
G1 X62.819 Y65.662 E5.10676
G1 X62.465 Y65.824 E5.11760
G1 X61.731 Y66.083 E5.13926
G1 X61.353 Y66.178 E5.15010
G1 X60.584 Y66.298 E5.17177
G1 X60.195 Y66.322 E5.18261
G1 X59.416 Y66.298 E5.20428
G1 X59.030 Y66.250 E5.21511
G1 X58.269 Y66.083 E5.23678
G1 X57.898 Y65.965 E5.24762
G1 X57.181 Y65.662 E5.26929
G1 X56.838 Y65.477 E5.28013
G1 X56.189 Y65.047 E5.30179
G1 X55.597 Y64.540 E5.32346
G1 X55.073 Y63.965 E5.34513
G1 X54.838 Y63.654 E5.35597
G1 X54.428 Y62.992 E5.37764
G1 X54.254 Y62.643 E5.38847
G1 X53.973 Y61.917 E5.41014
G1 X53.866 Y61.543 E5.42098
G1 X53.723 Y60.777 E5.44265
G1 X53.675 Y60.000 E5.46431
G1 X53.687 Y59.611 E5.47515
G1 X53.783 Y58.838 E5.49682
G1 X53.973 Y58.083 E5.51849
G1 X54.103 Y57.715 E5.52933
G1 X54.254 Y57.357 E5.54017
G1 X54.623 Y56.671 E5.56183
G1 X55.073 Y56.035 E5.58350
G1 X55.555 Y55.503 E5.60350
G1 X55.281 Y55.236 F6600.000
G1 F540.000
G1 X55.636 Y54.907 E5.61699
G1 X55.958 Y54.648 E5.62848
G1 X56.295 Y54.409 E5.63998
G1 X56.646 Y54.191 E5.65147
G1 X57.010 Y53.996 E5.66297
G1 X57.386 Y53.823 E5.67446
G1 X57.771 Y53.674 E5.68596
G1 X58.164 Y53.549 E5.69745
G1 X58.565 Y53.448 E5.70894
G1 X58.971 Y53.372 E5.72044
G1 X59.381 Y53.321 E5.73193
G1 X59.793 Y53.296 E5.74343
G1 X60.207 Y53.296 E5.75492
G1 X60.619 Y53.321 E5.76642
G1 X61.029 Y53.372 E5.77791
G1 X61.435 Y53.448 E5.78941
G1 X61.836 Y53.549 E5.80090
G1 X62.229 Y53.674 E5.81240
G1 X62.614 Y53.823 E5.82389
G1 X62.990 Y53.996 E5.83538
G1 X63.354 Y54.191 E5.84688
G1 X63.705 Y54.409 E5.85837
G1 X64.042 Y54.648 E5.86987
G1 X64.364 Y54.907 E5.88136
G1 X64.669 Y55.185 E5.89286
G1 X64.957 Y55.481 E5.90435
G1 X65.225 Y55.795 E5.91585
G1 X65.474 Y56.125 E5.92734
G1 X65.703 Y56.469 E5.93884
G1 X65.909 Y56.827 E5.95033
G1 X66.093 Y57.197 E5.96182
G1 X66.254 Y57.577 E5.97332
G1 X66.392 Y57.967 E5.98481
G1 X66.505 Y58.364 E5.99631
G1 X66.593 Y58.768 E6.00780
G1 X66.656 Y59.176 E6.01930
G1 X66.694 Y59.587 E6.03079
G1 X66.707 Y60.000 E6.04229
G1 X66.694 Y60.413 E6.05378
G1 X66.656 Y60.824 E6.06528
G1 X66.593 Y61.232 E6.07677
G1 X66.505 Y61.636 E6.08826
G1 X66.392 Y62.033 E6.09976
G1 X66.254 Y62.423 E6.11125
G1 X66.093 Y62.803 E6.12275
G1 X65.909 Y63.173 E6.13424
G1 X65.703 Y63.531 E6.14574
G1 X65.474 Y63.875 E6.15723
G1 X65.225 Y64.205 E6.16873
G1 X64.957 Y64.519 E6.18022
G1 X64.669 Y64.815 E6.19172
G1 X64.364 Y65.093 E6.20321
G1 X64.042 Y65.352 E6.21470
G1 X63.705 Y65.591 E6.22620
G1 X63.354 Y65.809 E6.23769
G1 X62.990 Y66.004 E6.24919
G1 X62.614 Y66.177 E6.26068
G1 X62.229 Y66.326 E6.27218
G1 X61.836 Y66.451 E6.28367
G1 X61.435 Y66.552 E6.29517
G1 X61.029 Y66.628 E6.30666
G1 X60.619 Y66.679 E6.31816
G1 X60.207 Y66.704 E6.32965
G1 X59.793 Y66.704 E6.34114
G1 X59.381 Y66.679 E6.35264
G1 X58.971 Y66.628 E6.36413
G1 X58.565 Y66.552 E6.37563
G1 X58.164 Y66.451 E6.38712
G1 X57.771 Y66.326 E6.39862
G1 X57.386 Y66.177 E6.41011
G1 X57.010 Y66.004 E6.42161
G1 X56.646 Y65.809 E6.43310
G1 X56.295 Y65.591 E6.44460
G1 X55.958 Y65.352 E6.45609
G1 X55.636 Y65.093 E6.46758
G1 X55.331 Y64.815 E6.47908
G1 X55.043 Y64.519 E6.49057
G1 X54.775 Y64.205 E6.50207
G1 X54.526 Y63.875 E6.51356
G1 X54.297 Y63.531 E6.52506
G1 X54.091 Y63.173 E6.53655
G1 X53.907 Y62.803 E6.54805
G1 X53.746 Y62.423 E6.55954
G1 X53.608 Y62.033 E6.57104
G1 X53.495 Y61.636 E6.58253
G1 X53.407 Y61.232 E6.59402
G1 X53.344 Y60.824 E6.60552
G1 X53.306 Y60.413 E6.61701
G1 X53.293 Y60.000 E6.62851
G1 X53.306 Y59.587 E6.64000
G1 X53.344 Y59.176 E6.65150
G1 X53.407 Y58.768 E6.66299
G1 X53.495 Y58.364 E6.67449
G1 X53.608 Y57.967 E6.68598
G1 X53.746 Y57.577 E6.69748
G1 X53.907 Y57.197 E6.70897
G1 X54.091 Y56.827 E6.72046
G1 X54.297 Y56.469 E6.73196
G1 X54.526 Y56.125 E6.74345
G1 X54.775 Y55.795 E6.75495
G1 X55.239 Y55.279 E6.77426
G1 X54.965 Y55.013 F6600.000
;TYPE:External perimeter
G1 F540.000
G1 X55.387 Y54.616 E6.79040
G1 X55.727 Y54.342 E6.80255
G1 X56.084 Y54.090 E6.81470
G1 X56.455 Y53.860 E6.82685
G1 X56.840 Y53.653 E6.83900
G1 X57.236 Y53.471 E6.85115
G1 X57.644 Y53.313 E6.86330
G1 X58.060 Y53.181 E6.87545
G1 X58.483 Y53.074 E6.88760
G1 X58.912 Y52.994 E6.89975
G1 X59.346 Y52.940 E6.91190
G1 X59.782 Y52.914 E6.92405
G1 X60.218 Y52.914 E6.93620
G1 X60.654 Y52.940 E6.94835
G1 X61.088 Y52.994 E6.96050
G1 X61.517 Y53.074 E6.97265
G1 X61.940 Y53.181 E6.98480
G1 X62.356 Y53.313 E6.99696
G1 X62.764 Y53.471 E7.00911
G1 X63.160 Y53.653 E7.02126
G1 X63.545 Y53.860 E7.03341
G1 X63.916 Y54.090 E7.04556
G1 X64.273 Y54.342 E7.05771
G1 X64.613 Y54.616 E7.06986
G1 X64.935 Y54.910 E7.08201
G1 X65.239 Y55.224 E7.09416
G1 X65.524 Y55.555 E7.10631
G1 X65.787 Y55.904 E7.11846
G1 X66.028 Y56.268 E7.13061
G1 X66.246 Y56.646 E7.14276
G1 X66.441 Y57.037 E7.15491
G1 X66.611 Y57.439 E7.16706
G1 X66.756 Y57.851 E7.17921
G1 X66.876 Y58.271 E7.19136
G1 X66.969 Y58.697 E7.20351
G1 X67.036 Y59.129 E7.21566
G1 X67.076 Y59.564 E7.22781
G1 X67.090 Y60.000 E7.23996
G1 X67.076 Y60.436 E7.25211
G1 X67.036 Y60.871 E7.26426
G1 X66.969 Y61.303 E7.27641
G1 X66.876 Y61.729 E7.28856
G1 X66.756 Y62.149 E7.30071
G1 X66.611 Y62.561 E7.31286
G1 X66.441 Y62.963 E7.32501
G1 X66.246 Y63.354 E7.33716
G1 X66.028 Y63.732 E7.34931
G1 X65.787 Y64.096 E7.36146
G1 X65.524 Y64.445 E7.37361
G1 X65.239 Y64.776 E7.38576
G1 X64.935 Y65.090 E7.39791
G1 X64.613 Y65.384 E7.41006
G1 X64.273 Y65.658 E7.42221
G1 X63.916 Y65.910 E7.43436
G1 X63.545 Y66.140 E7.44652
G1 X63.160 Y66.347 E7.45867
G1 X62.764 Y66.529 E7.47082
G1 X62.356 Y66.687 E7.48297
G1 X61.940 Y66.819 E7.49512
G1 X61.517 Y66.926 E7.50727
G1 X61.088 Y67.006 E7.51942
G1 X60.654 Y67.060 E7.53157
G1 X60.218 Y67.086 E7.54372
G1 X59.782 Y67.086 E7.55587
G1 X59.346 Y67.060 E7.56802
G1 X58.912 Y67.006 E7.58017
G1 X58.483 Y66.926 E7.59232
G1 X58.060 Y66.819 E7.60447
G1 X57.644 Y66.687 E7.61662
G1 X57.236 Y66.529 E7.62877
G1 X56.840 Y66.347 E7.64092
G1 X56.455 Y66.140 E7.65307
G1 X56.084 Y65.910 E7.66522
G1 X55.727 Y65.658 E7.67737
G1 X55.387 Y65.384 E7.68952
G1 X55.065 Y65.090 E7.70167
G1 X54.761 Y64.776 E7.71382
G1 X54.476 Y64.445 E7.72597
G1 X54.213 Y64.096 E7.73812
G1 X53.972 Y63.732 E7.75027
G1 X53.754 Y63.354 E7.76242
G1 X53.559 Y62.963 E7.77457
G1 X53.389 Y62.561 E7.78672
G1 X53.244 Y62.149 E7.79887
G1 X53.124 Y61.729 E7.81102
G1 X53.031 Y61.303 E7.82317
G1 X52.964 Y60.871 E7.83532
G1 X52.924 Y60.436 E7.84747
G1 X52.910 Y60.000 E7.85962
G1 X52.924 Y59.564 E7.87177
G1 X52.964 Y59.129 E7.88393
G1 X53.031 Y58.697 E7.89608
G1 X53.124 Y58.271 E7.90823
G1 X53.244 Y57.851 E7.92038
G1 X53.389 Y57.439 E7.93253
G1 X53.559 Y57.037 E7.94468
G1 X53.754 Y56.646 E7.95683
G1 X53.972 Y56.268 E7.96898
G1 X54.213 Y55.904 E7.98113
G1 X54.476 Y55.555 E7.99328
G1 X54.923 Y55.056 E8.01191
G1 X55.352 Y55.114 F6600.000
G1 E3.96191 F2400.000
;WIPE_START
G1 F5280.000
G1 X55.387 Y54.616 E3.68556
G1 X55.660 Y54.397 E3.53441
;WIPE_END
G1 E3.51191 F2400.000
G92 E0
G1 X65.302 Y56.769 F6600.000
G1 E4.50000 F2400.000
;TYPE:Solid infill
;WIDTH:0.426807
G1 F1080.000
G1 X64.172 Y55.640 E4.54525
G1 X63.638 Y55.182 E4.56516
G1 X63.015 Y54.769 E4.58633
G1 X62.695 Y54.597 E4.59661
G1 X62.495 Y54.513 E4.60278
G1 X65.483 Y57.501 E4.72249
G1 X65.631 Y57.823 E4.73252
G1 X65.814 Y58.383 E4.74918
G1 X61.615 Y54.184 E4.91736
G1 X61.296 Y54.103 E4.92668
G1 X60.927 Y54.046 E4.93725
G1 X65.957 Y59.076 E5.13873
G1 X65.992 Y59.262 E5.14409
G1 X66.026 Y59.695 E5.15638
G1 X60.312 Y53.981 E5.38524
G1 X59.749 Y53.969 E5.40117
G1 X66.026 Y60.246 E5.65255
G1 X65.979 Y60.749 E5.66688
G1 X59.248 Y54.019 E5.93645
G1 X58.772 Y54.093 E5.95011
G1 X65.909 Y61.229 E6.23594
G1 X65.799 Y61.670 E6.24881
G1 X58.328 Y54.199 E6.54804
G1 X57.917 Y54.339 E6.56033
G1 X65.657 Y62.079 E6.87034
G1 X65.503 Y62.475 E6.88239
G1 X57.530 Y54.502 E7.20173
G1 X57.159 Y54.682 E7.21340
G1 X65.315 Y62.838 E7.54006
G1 X65.121 Y63.195 E7.55155
G1 X56.810 Y54.884 E7.88442
G1 X56.482 Y55.106 E7.89565
G1 X64.893 Y63.517 E8.23252
G1 X64.659 Y63.833 E8.24367
G1 X56.168 Y55.343 E8.58374
G1 X55.872 Y55.597 E8.59480
G1 X64.397 Y64.121 E8.93621
G1 X64.128 Y64.403 E8.94724
G1 X55.603 Y55.879 E9.28865
G1 X55.341 Y56.167 E9.29969
G1 X63.835 Y64.660 E9.63988
G1 X63.520 Y64.896 E9.65101
G1 X55.107 Y56.483 E9.98797
G1 X54.879 Y56.805 E9.99915
G1 X63.189 Y65.116 E10.33198
G1 X62.840 Y65.317 E10.34339
G1 X54.685 Y57.162 E10.67003
G1 X54.497 Y57.525 E10.68160
G1 X62.473 Y65.500 E11.00104
G1 X62.078 Y65.657 E11.01305
G1 X54.343 Y57.921 E11.32285
G1 X54.201 Y58.330 E11.33510
G1 X61.671 Y65.800 E11.63429
G1 X61.228 Y65.907 E11.64721
G1 X54.098 Y58.778 E11.93276
G1 X54.012 Y59.241 E11.94612
G1 X60.752 Y65.981 E12.21606
G1 X60.251 Y66.031 E12.23032
G1 X53.974 Y59.754 E12.48170
G1 X53.974 Y60.305 E12.49729
G1 X59.688 Y66.019 E12.72614
G1 X59.443 Y66.011 E12.73310
G1 X59.073 Y65.954 E12.74370
G1 X54.043 Y60.924 E12.94517
G1 X54.186 Y61.618 E12.96524
G1 X58.385 Y65.816 E13.13341
G1 X57.998 Y65.696 E13.14490
G1 X57.505 Y65.487 E13.16004
G1 X54.499 Y62.481 E13.28044
G1 X54.681 Y62.856 E13.29224
G1 X54.865 Y63.175 E13.30265
G1 X55.297 Y63.785 E13.32383
G1 X55.753 Y64.286 E13.34302
G1 X56.747 Y65.279 E13.38281
;LAYER_CHANGE
;Z:0.35
;HEIGHT:0.175
G1 E9.33281 F2400.000
;WIPE_START
G1 F5280.000
G1 X56.047 Y64.579 E8.90531
;WIPE_END
G1 E8.88281 F2400.000
G92 E0
G1 Z0.350 F6600.000
G1 X55.792 Y64.887
G1 E4.50000 F2400.000
;TYPE:Perimeter
;WIDTH:0.45
G1 F900.000
G1 X55.234 Y64.345 E4.52334
G1 X54.736 Y63.726 E4.54717
G1 X54.516 Y63.395 E4.55909
G1 X54.141 Y62.697 E4.58289
G1 X53.981 Y62.315 E4.59533
G1 X53.745 Y61.573 E4.61867
G1 X53.660 Y61.185 E4.63059
G1 X53.563 Y60.397 E4.65442
G1 X53.563 Y59.604 E4.67821
G1 X53.602 Y59.191 E4.69065
G1 X53.745 Y58.427 E4.71400
G1 X53.854 Y58.045 E4.72592
G1 X53.986 Y57.671 E4.73780
G1 X54.148 Y57.290 E4.75024
G1 X54.516 Y56.605 E4.77359
G1 X54.736 Y56.274 E4.78551
G1 X55.234 Y55.655 E4.80934
G1 X55.803 Y55.103 E4.83313
G1 X56.126 Y54.844 E4.84557
G1 X56.775 Y54.414 E4.86891
G1 X57.125 Y54.227 E4.88083
G1 X57.486 Y54.061 E4.89275
G1 X58.235 Y53.797 E4.91658
G1 X58.620 Y53.700 E4.92850
G1 X59.405 Y53.578 E4.95233
G1 X59.800 Y53.554 E4.96422
G1 X60.595 Y53.578 E4.98808
G1 X60.989 Y53.627 E5.00000
G1 X61.764 Y53.796 E5.02380
G1 X62.159 Y53.923 E5.03623
G1 X62.874 Y54.226 E5.05954
G1 X63.563 Y54.624 E5.08341
G1 X64.196 Y55.102 E5.10724
G1 X64.490 Y55.370 E5.11916
G1 X65.025 Y55.957 E5.14299
G1 X65.484 Y56.605 E5.16682
G1 X65.859 Y57.303 E5.19061
G1 X66.019 Y57.685 E5.20305
G1 X66.255 Y58.427 E5.22639
G1 X66.340 Y58.815 E5.23831
G1 X66.437 Y59.603 E5.26214
G1 X66.450 Y60.000 E5.27406
G1 X66.401 Y60.793 E5.29789
G1 X66.255 Y61.573 E5.32172
G1 X66.146 Y61.955 E5.33364
G1 X65.859 Y62.696 E5.35747
G1 X65.682 Y63.051 E5.36939
G1 X65.264 Y63.726 E5.39322
G1 X65.025 Y64.043 E5.40514
G1 X64.490 Y64.630 E5.42897
G1 X63.887 Y65.147 E5.45280
G1 X63.563 Y65.376 E5.46472
G1 X62.875 Y65.773 E5.48855
G1 X62.514 Y65.939 E5.50047
G1 X61.765 Y66.203 E5.52430
G1 X61.380 Y66.300 E5.53622
G1 X60.595 Y66.422 E5.56004
G1 X60.199 Y66.447 E5.57196
G1 X59.405 Y66.422 E5.59579
G1 X58.620 Y66.300 E5.61962
G1 X58.235 Y66.203 E5.63154
G1 X57.856 Y66.083 E5.64346
G1 X57.126 Y65.774 E5.66726
G1 X56.437 Y65.376 E5.69112
G1 X55.838 Y64.925 E5.71363
G1 X55.579 Y65.245 F6600.000
G1 F1800.000
G1 X55.223 Y64.926 E5.72798
G1 X54.929 Y64.623 E5.74067
G1 X54.654 Y64.302 E5.75335
G1 X54.399 Y63.965 E5.76603
G1 X54.166 Y63.613 E5.77871
G1 X53.954 Y63.246 E5.79140
G1 X53.766 Y62.869 E5.80406
G1 X53.596 Y62.463 E5.81726
G1 X53.461 Y62.080 E5.82944
G1 X53.345 Y61.674 E5.84213
G1 X53.255 Y61.261 E5.85481
G1 X53.190 Y60.843 E5.86749
G1 X53.151 Y60.422 E5.88017
G1 X53.138 Y60.000 E5.89286
G1 X53.151 Y59.578 E5.90552
G1 X53.192 Y59.140 E5.91872
G1 X53.255 Y58.739 E5.93091
G1 X53.345 Y58.326 E5.94359
G1 X53.461 Y57.920 E5.95627
G1 X53.601 Y57.522 E5.96893
G1 X53.773 Y57.117 E5.98213
G1 X53.954 Y56.754 E5.99432
G1 X54.166 Y56.387 E6.00700
G1 X54.399 Y56.035 E6.01968
G1 X54.654 Y55.698 E6.03237
